X:1999
T:Belle, qui tiens ma vie
T:Pavane
C:Thoinot Arbeau
B:Arbeau: Orchesographie (1588)
R:Pavan
Z:Transcribed by Frank Nordberg - http://www.musicaviva.com
F:http://abc.musicaviva.com/tunes/arbeau-thoinot/arbeau-belle-qui-tiens.abc
M:C|
L:1/2
Q:1/1=60
K:Gdor
V:1
G2|G^F|GA|B2|Bd|cB|BA|B2|
w:Bel-le qui tiens ma vi-e Cap-ti-ve dans tes yeulx.
V:2
D2|DD|DF|F2|FF|EF|GF|F2|
w:Bel-le qui tiens ma vi-e Cap-ti-ve dans tes yeulx.
V:3
B,2|B,A,|B,C|D2|DB,|CC|D2|B,2|
w:Bel-le qui tiens ma vi-e Cap-ti-ve dans tes yeulx.
V:4
G,2|G,D,|G,F,|B,,2|B,,B,,|C,D,|_E,F,|B,,2|
w:Bel-le qui tiens ma vi-e Cap-ti-ve dans tes yeulx.
%
V:1
G2|G^F|GA|B2|Bd|cB|BA|B2|
w:Qui m죠s l죞^a-me ra-vi-e D죳n sou-ris gra-ci-eux,
V:2
D2|DD|DF|F2|FF|EF|GF|F2|
w:Qui m죠s l죞^a-me ra-vi-e D죳n sou-ris gra-ci-eux,
V:3
B,2|B,A,|B,C|D2|DB,|CC|D2|B,2|
w:Qui m죠s l죞^a-me ra-vi-e D죳n sou-ris gra-ci-eux,
V:4
G,2|G,D,|G,F,|B,,2|B,,B,,|C,D,|_E,F,|B,,2|
w:Qui m죠s l죞^a-me ra-vi-e D죳n sou-ris gra-ci-eux,
%
V:1
B2|A A|G G|^F2|D2|E/F/ G|G ^F|G2|
w:viens t\^ot me se-cou-rir Ou me_ faud-ra mou-rir.
V:2
F2|FF|D_E|D2|F2|CD|DD|=B,2|
w:viens t\^ot me se-cou-rir Ou me faud-ra mou-rir.
V:3
D2|CD|B,C|A,2|B,2|G,B,|A,A,|G,2|
w:viens t\^ot me se-cou-rir Ou me faud-ra mou-rir.
V:4
B,2|F,D,|G,C,|D,2|B,,2|C,G,,|D,D,|G,,2|
w:viens t\^ot me se-cou-rir Ou me faud-ra mou-rir.
%
V:1
B2|A A|G G|^F2|D2|E/F/ G|G ^F|G2|]
w:Viens t\^ot me se-cou-rir viens t\^ot me se-cou-rir
V:2
B,2|FF|D_E|D2|F2|ED|DD|D2|]
w:Viens t\^ot me se-cou-rir viens t\^ot me se-cou-rir
V:3
D2|CD|B,C|A,2|B,2|G,B,|A,A,|G,2|
w:Viens t\^ot me se-cou-rir viens t\^ot me se-cou-rir
V:4
G,2|F,D,|G,C,|D,2|B,,2|C,G,,|D,D,|G,,2|]
w:Viens t\^ot me se-cou-rir viens t\^ot me se-cou-rir
W:
W:Belle qui tiens ma vie
W:Captive dans tes yeulx.
W:Qui m'as l'\^ame ravie
W:D'un souris gracieux,
W:viens t\^ot me secourir
W:Ou me faudra mourir.
W:
W:Pourquoi fuis tu, mignarde,
W:Si je suis pr\`es de toi
W:Quand tes yeux je regarde
W:Je me perds dedans moi,
W:Car tes perfections
W:Changent mes actions.
W:
W:Tes beaut\'es et ta grace
W:Et tes divins propos
W:Ont \'echauff\'e la glace
W:Qui me gelait les os,
W:Et ont rempli mon coeur
W:D'une amoureuse ardeur.
W:
W:Mon \^ame voulait \^etre
W:Libre de passions,
W:Mais l'amour s'est fait ma\^itre
W:De mes affections
W:Et ta mis sous saloi
W:Et mon coeur et mafoi.
W:
W:Approche donc ma belle,
W:Approche toi mon bien,
W:Ne me sois plus rebelle
W:Puisque mon coeur est tien,
W:Pour mon mal appaiser
W:Donne moi un baiser.
W:
W:Ja meurs, mon Angelette,
W:Je meurs en te baisant
W:Ta bouche tant doucette
W:Va mon bien ravissant
W:A ce coup mes esprits
W:Sont tous d'amour \'epris.
W:
W:Plut\^ot on verra l'onde
W:Contremont reculer,
W:Et plut\~ot l'oeil du monde
W:Cessera de br\^uler,
W:Que l'amour qui m'\'epont
W:D\'ecroisse d'un seul point.
W:
W:
W:  From Musica Viva - http://www.musicaviva.com
W:  the Internet center for free sheet music downloads.

